svg/door_open.svg

<svg xmlns="http://www.w3.org/2000/svg" viewBox="0 0 24 24"><path d="M12 3c-1.11 0-2 .89-2 2H3v14H2v2h20v-2h-1V5c0-1.11-.89-2-2-2zm0 2h7v14h-7zm-7 6h2v2H5z"/></svg>

<?xml version="1.0" encoding="UTF-8"?><!DOCTYPE svg PUBLIC "-//W3C//DTD SVG 1.1//EN" "http://www.w3.org/Graphics/SVG/1.1/DTD/svg11.dtd"><svg xmlns="http://www.w3.org/2000/svg" xmlns:xlink="http://www.w3.org/1999/xlink" version="1.1" id="mdi-door-open" width="24" height="24" viewBox="0 0 24 24"><path d="M12,3C10.89,3 10,3.89 10,5H3V19H2V21H22V19H21V5C21,3.89 20.11,3 19,3H12M12,5H19V19H12V5M5,11H7V13H5V11Z" /></svg>
